!!!COM:	Bach, Johann Sebastian
!!!CDT:	1685/02/21/-1750/07/28/
!!!OTL@@DE:	O Welt, sieh hier dein Leben
!!!SCT:	BWV 395
!!!PC#:	363
!!!AGN:	chorale
**kern	**kern	**kern	**kern
*ICvox	*ICvox	*ICvox	*ICvox
*Ibass	*Itenor	*Ialto	*Isoprn
*I"Bass	*I"Tenor	*I"Alto	*I"Soprano
*	*oclefC4	*oclefC3	*oclefC1
*clefF4	*clefGv2	*clefG2	*clefG2
*k[f#c#g#]	*k[f#c#g#]	*k[f#c#g#]	*k[f#c#g#]
*A:	*A:	*A:	*A:
*M4/4	*M4/4	*M4/4	*M4/4
*met(c)	*met(c)	*met(c)	*met(c)
*MM100	*MM100	*MM100	*MM100
4A	4e	4a	4cc#
=1	=1	=1	=1
4d	4d	4f#	4a
8c#L	4d	4g#	4b
8BJ	.	.	.
4.A	8eL	8aL	8cc#L
.	8dJ	8bJ	8ddJ
.	8c#L	4cc#	4ee
8G	8BJ	.	.
=2	=2	=2	=2
4F#	4A	4cc#	2dd
8G#XL	4B	8bL	.
8F#J	.	8aJ	.
4E#;	4c#;	4g#;	4cc#;
4F#	4f#	4a	8cc#L
.	.	.	8ddJ
=3	=3	=3	=3
8C#L	4enX	4a	4ee
8BBJ	.	.	.
8C#L	4e	4a	4ee
8DJ	.	.	.
8EL	4e	4g#	4b
8DJ	.	.	.
4C#	4e#	4g#	8cc#L
.	.	.	8bJ
=4	=4	=4	=4
4F#	4c#	8g#L	2a
.	.	8f#J	.
4BB	4B	8enXL	.
.	.	8d#J	.
4E;	4B;	4e;	4g#;
4DnX	4G#	4B	4e
=5	=5	=5	=5
4C#	4A	4e	4a
4BB	4dnX	8f#L	4b
.	.	8g#J	.
4AA	8eL	8aL	8cc#L
.	8AJ	16bL	16ddL
.	.	16cc#JJ	16eeJJ
4D	8G#L	8bL	8ddL
.	8AJ	8aJ	8cc#J
=6	=6	=6	=6
2.E;	2.e;	2.g#;	2.b;
4E#	4c#	4g#	4cc#
=7	=7	=7	=7
4F#	4c#	4.f#	4a
4G#	4B	.	4b
.	.	8enX	.
4A	8AL	4e	8cc#L
.	8BJ	.	8ddJ
4A#	4c#	4f#	4ee
=8	=8	=8	=8
2B	4B	4f#	2dd
.	4G#	4e#	.
4F#;	4A#;	4f#;	4cc#;
4F#	4A	4f#	8cc#L
.	.	.	8ddJ
=9	=9	=9	=9
8C#L	4A	4enX	4ee
8BBJ	.	.	.
4C#	4A	8aL	4ee
.	.	8g#J	.
4D#	4A	4f#	4b
4E	4G#	8eL	4cc#
.	.	16d#L	.
.	.	16c#JJ	.
=10	=10	=10	=10
4E	4c#	2f#	2a
4D#	4B	.	.
4E;	4B;	4e;	4g#;
4D	4G#	4B	4e
=11	=11	=11	=11
4C#	4A	4e	4a
4BB	4d	8f#L	4b
.	.	8g#J	.
8AAL	4.e	[2a	8cc#L
8BBJ	.	.	8ddJ
8C#L	.	.	8eeL
8DJ	8f#	.	8ddJ
=12	=12	=12	=12
4E	4e	4a]	4cc#
4E	4d	4g#	4b
4AA;	4c#;	4e;	4a;
==	==	==	==
*-	*-	*-	*-
!!!YOR1: 371 vierstimmige Choralges&auml;nge von Johann Sebastian Bach, 
!!!YOR2: 4th ed. by Alfred D&ouml;rffel (Leipzig: Breitkopf und H&auml;rtel, 
!!!YOR2: c.1875). 178 pp. Plate "V.A.10".  reprint: J.S. Bach, 371 Four-Part 
!!!YOR4: Chorales (New York: Associated Music Publishers, Inc., c.1940).
!!!SMS: B&H, 4th ed, Alfred D&ouml;rffel, c.1875, plate V.A.10
!!!EED:  Craig Stuart Sapp
!!!EEV:  2009/05/22
